!!!!SEGMENT: pl-sa--400-a-viii-40--004-002_pugnani-gaetano--trio-in-d-andante.krn
!!!cenid: 17xx:2030
!!!COM: Pugnani, Gaetano
!!!COM-rismid: pe30002608
!!!CDT: 1731/11/27-1798/07/15
!!!CNT: Italian
!!!OPR: Trio in D
!!!OTL: Andante
!!!OMV: 002
!!!PDT:
!!!AGN: Secular
!!!SMS-siglum: PL-SA
!!!SMS-shelfmark: 400/A VIII 40
!!!SMS-shelfwork: 004-002 M
!!!SMS-variant:
!!!SMS-altvar:
!!!NIFC-rismid: 1001104664
!!!URL-scan: http://bc.bdsandomierz.pl/dlibra/publication/1703/edition/1671/content
!!!ONB-nifc: UWAGA: No 4to. Części: 1. bez podanego tempa, 2. Andante, 3. Allegro
!!!OMD: Andante
!!!AIN: 2 violn
!!!key: G
**kern	**kern	**dynam	**kern	**dynam
*part3	*part2	*part2	*part1	*part1
*staff3	*staff2	*	*staff1	*
*I"Baſso.	*I"Violino 2do	*	*I"Violino 1mo	*
*I'b	*I'vl 2	*	*I'vl 1	*
*I	*Ivioln	*	*Ivioln	*
*ICstr	*ICstr	*	*ICstr	*
*IGcont	*	*	*	*
*clefF4	*clefG2	*	*clefG2	*
*k[f#]	*k[f#]	*	*k[f#]	*
*G:	*G:	*	*G:	*
*M3/4	*M3/4	*	*M3/4	*
=1	=1	=1	=1	=1
*	*tremolo	*	*	*
!LO:TX:t=P:problem:zgodnie z RISM "b part missing."	!	!	!	!
2.ryy	8g/L	.	4g/	.
.	8g/	.	.	.
.	8g/	.	4dd\	.
.	8g/	.	.	.
.	8g/	.	4gg\	.
.	8g/J	.	.	.
=2	=2	=2	=2	=2
2.ryy	8d/L	.	(4gg\	.
.	8d/	.	.	.
.	8d/	.	4ff#\)	.
.	8d/	.	.	.
*	*	*	*Xtuplet	*
!	!	!	!LO:TUP:a:problem:klamra łukowa	!
.	8d/	.	24ff#\LL	.
.	.	.	24aa\	.
.	.	.	24gg\	.
.	8d/J	.	24ff#\	.
.	.	.	24gg\	.
.	.	.	24aa\JJ	.
*	*Xtremolo	*	*	*
=3	=3	=3	=3	=3
2.ryy	8e/L	.	4cc\	.
.	8e/	.	.	.
.	8e/	.	16cc\LL	.
.	.	.	16ee\	.
.	8e/	.	16dd\	.
.	.	.	16cc\JJ	.
.	8f#/	.	8cc\L	.
.	8f#/J	.	8cc\J	.
=4	=4	=4	=4	=4
!	!	!	!LO:TX:t=P:problem:niejednoznaczny zapis ozdobnika [przyjęto mordent górny]:global	!
2.ryy	8g/L	.	4ccM\	.
.	8g/	.	.	.
.	8g/	.	8b\	.
.	8g/	.	4dd\	.
.	8B/	.	.	.
.	8B/J	.	8dd#X\	.
=5	=5	=5	=5	=5
.	.	.	8qqdd#X/	.
2.ryy	8c/L	.	4ee\	.
.	8c/	.	.	.
.	8c/	.	16ee\LL	.
!	!	!	!LO:SIC:v:s=16ddn\	!
.	.	.	16dd#y\	.
.	8c/	.	16cc\	.
.	.	.	16b\JJ	.
.	8c#X/	.	8a/L	.
.	8c#/J	.	8g/J	.
=6	=6	=6	=6	=6
2.ryy	4d/	.	8f#/L	.
.	.	.	8d/	.
.	4a\	.	8d/	.
.	.	.	8d/	.
!	!	!LO:DY:a	!	!
.	4dd\	f	8d/	.
.	.	.	8d/J	.
=7	=7	=7	=7	=7
2.ryy	4dd\	.	8eL 8A/	.
.	.	.	8e 8A/	.
.	4cc#X\	.	8e 8A/	.
.	.	.	8e 8A/	.
*	*Xtuplet	*	*	*
!	!LO:TUP:a:problem:klamra łukowa	!	!	!
.	24cc#\LL	.	8e 8A/	.
.	24ee\	.	.	.
.	24dd\	.	.	.
.	24cc#\	.	8eJ 8A/	.
.	24dd\	.	.	.
.	24ee\JJ	.	.	.
=8	=8	=8	=8	=8
2.ryy	4g/	.	8B/L	.
.	.	.	8B/	.
.	16g/LL	.	8B/	.
.	16b/	.	.	.
.	16a/	.	8B/	.
.	16g/JJ	.	.	.
.	8g/L	.	8c#X/	.
.	8g/J	.	8c#/J	.
=9	=9	=9	=9	=9
2.ryy	8f#/	.	8d/L	.
.	4f#/	.	8d/	.
.	.	.	8d/	.
.	4a/	.	8d/	.
.	.	.	8f#/	.
.	8a#X/	.	8f#/J	.
!	!	!	!LO:LB:g=original	!
=10	=10	=10	=10	=10
2.ryy	4b\	.	8G/L	.
.	.	.	8G/	.
.	16b/LL	.	8G/	.
.	16a/	.	.	.
.	16g/	.	8G/	.
.	16f#/JJ	.	.	.
.	8e/L	.	8G#X/	.
!	!LO:SIC:v:s=8d/J	!	!LO:TX:t=P:problem:8b laseczka w dół	!
.	8c/J	.	8bJ 8G#/	.
!	!LO:LB:g=original	!	!	!
=11	=11	=11	=11	=11
*	*	*	*^	*
!	!LO:TX:t=P:problem:mixed beam	!	!LO:TX:t=P:problem:mixed beam	!	!
2.ryy	8c#X/L	.	8ryy	(&8A/L	.
.	8cc#X\	.	8ee/L	8a\	.
.	8cc#\	.	8ee/	8a\	.
.	8cc#\J	.	8ee/J&)	8a\J	.
=-	=	=	=-	=-	=-
!	!LO:TUP:a:problem:klamra łukowa	!	!LO:TUP:a:problem:klamra łukowa	!	!
.	24cc#y\LL	.	24ee\LL	4rcyy	.
.	24ee\	.	24gg\	.	.
.	24dd\	.	24ff#\	.	.
.	24cc#\	.	24ee\	.	.
.	24dd\	.	24ff#\	.	.
!	!	!	!LO:TX:t=P:problem:wykreślone 24aa	!	!
.	24ee\JJ	.	24gg\JJ	.	.
*	*	*	*v	*v	*
=12	=12	=12	=12	=12
!	!	!	!LO:TX:t=P:problem:niezgodność pionów	!
!	!	!	!LO:TX:t=P:problem:wykreślony takt	!
2.ryy	8dd\L	.	4cc\	.
.	8dd\	.	.	.
.	8dd\	.	16cc\LL	.
.	.	.	16ee\	.
.	8dd\J	.	16dd\	.
=-	=	=	=-	=-
.	.	.	16cc\JJ	.
!	!LO:TUP:a:problem:klamra łukowa	!	!	!
.	24dd\LL	.	8cc\L	.
.	24ff#\	.	.	.
.	24ee\	.	.	.
.	24dd\	.	8cc\J	.
.	24ee\	.	.	.
.	24ff#\JJ	.	.	.
=13	=13	=13	=13	=13
*	*	*	*^	*
!	!	!	!LO:TX:t=P:problem:wykreślone 4cc i 4b	!	!
2.ryy	8ee\L	.	8gg/L	8a\L	.
.	8ee\J	.	8gg/J	8a\J	.
.	16ee\LL	.	16gg\LL	4rcyy	.
.	16gg\	.	16bb\	.	.
.	16ff#\	.	16aa\	.	.
.	16ee\JJ	.	16gg\JJ	.	.
.	16ee\LL	.	(16gg\LL	4rcyy	.
.	16dd\	.	16ff#\)	.	.
.	16dd\	.	(16ff#\	.	.
.	16cc#X\JJ	.	16ee\JJ)	.	.
*	*	*	*v	*v	*
=14	=14	=14	=14	=14
!	!LO:TX:t=P:problem:mixed beam	!	!	!
2.ryy	8dd\L	.	8ff#\L	.
.	8dd\	.	8aa\J	.
.	8f#/	.	8ddd\L	.
.	8f#/	.	8ddd\J	.
.	8f#/	.	16cccn\LL	.
.	.	.	16ccc\	.
.	8f#/J	.	16bb\	.
.	.	.	16aa\JJ	.
=15	=15	=15	=15	=15
*	*tremolo	*	*	*
2.ryy	8g/L	.	8gg\L	.
.	8g/	.	8ddd\J	.
.	8g/	.	4ddd\	.
.	8g/	.	.	.
.	8g/	.	16ddd\LL	.
.	.	.	16bb\	.
.	8g/J	.	16aa\	.
.	.	.	16gg\JJ	.
=16	=16	=16	=16	=16
2.ryy	8f#/L	.	8aa\L	.
.	8f#/	.	8ddd\J	.
.	8f#/	.	4ddd\	.
.	8f#/	.	.	.
.	8f#/	.	16ddd\LL	.
.	.	.	16cccn\	.
.	8f#/J	.	16bb\	.
.	.	.	16aa\JJ	.
*	*Xtremolo	*	*	*
!	!	!	!LO:LB:g=original	!
=17	=17	=17	=17	=17
2.ryy	8g/L	.	16bb\LL	.
.	.	.	16gg\	.
.	8g/	.	16ff#\	.
.	.	.	16ee\JJ	.
.	8a/	.	8.dd\L	.
.	8a/	.	.	.
.	.	.	16ee\Jk	.
.	8A/	.	4eeM\	.
.	8A/J	.	.	.
=18	=18	=18	=18	=18
!	!	!	!LO:TX:t=P:problem:mixed beam	!
2.ryy	4d/	.	8dd\L	.
.	.	.	8d/	.
.	16r	.	8d/	.
.	16dd\LL	.	.	.
.	16cc#X\	.	8d/	.
.	16b\JJ	.	.	.
.	(16b/LL	.	8d/	.
.	16a/)	.	.	.
.	(16a/	.	8d/J	.
.	16g#X/JJ)	.	.	.
=19	=19	=19	=19	=19
2.ryy	8a\L	.	8c#X/L	.
.	8ee\J	.	8c#/	.
.	16ee\LL	.	8c#/	.
.	16dd\	.	.	.
.	16cc#X\	.	8c#/	.
.	16b\JJ	.	.	.
.	8a/L	.	8c#/	.
.	8g/J	.	8c#/J	.
!	!LO:LB:g=original	!	!	!
=20	=20	=20	=20	=20
2.ryy	8f#/L	.	4d/	.
.	8f#/	.	.	.
.	8d/	.	16r	.
.	.	.	16dd\LL	.
.	8d/	.	16cc#X\	.
.	.	.	16b\JJ	.
.	8d/	.	16b\LL	.
.	.	.	16a\	.
.	8d/J	.	16a\	.
.	.	.	16g#X\JJ	.
=21	=21	=21	=21	=21
2.ryy	8c#X/L	.	8a\L	.
.	8c#/	.	8gg\J	.
.	8A/	.	16gg\LL	.
.	.	.	16ff#\	.
.	8A/	.	16ee\	.
.	.	.	16dd\JJ	.
.	8A/	.	16cc#X\LL	.
.	.	.	16b\	.
.	8A/J	.	16a\	.
.	.	.	16g\JJ	.
=22	=22	=22	=22	=22
2.ryy	8d/L	.	16f#\LL	.
.	.	.	16dd\	.
.	8g/	.	16b\	.
.	.	.	16gg\JJ	.
.	.	.	8qqdd/	.
*	*	*	*2\right	*
.	8a/	.	2cc#X\	.
.	8a/	.	.	.
.	8A/	.	.	.
.	8A/J	.	.	.
=23	=23	=23	=23	=23
!	!LO:TX:t=P:problem:mixed beam	!	!	!
2.ryy	8d/L	.	2dd\	.
.	16dd\L	.	.	.
.	16ee\JJ	.	.	.
.	8dd\L	.	.	.
.	8ccn\	.	.	.
.	8b\	.	4r	.
.	8a\J	.	.	.
=24	=24	=24	=24	=24
*	*tremolo	*	*	*
2.ryy	8g#X/L	.	4dd\	.
.	8g#/	.	.	.
.	8g#/	.	16dd\LL	.
.	.	.	16ffn\	.
.	8g#/	.	16ee\	.
.	.	.	16dd\JJ	.
.	8g#/	.	8dd\L	.
.	8g#/J	.	8dd\J	.
=25	=25	=25	=25	=25
2.ryy	8a/L	.	16dd\LL	.
.	.	.	16b\	.
.	8a/	.	16b\	.
.	.	.	16cc\JJ	.
!	!	!	!LO:LB:g=original	!
.	8a/	.	4cc\	.
.	8a/	.	.	.
.	8a/	.	4aa\	.
.	8a/J	.	.	.
*	*Xtremolo	*	*	*
=26	=26	=26	=26	=26
2.ryy	8b\L	.	4aa\	.
.	8b\	.	.	.
.	8b\	.	4gg#X\	.
.	8b\	.	.	.
.	8cc#X\	.	4ggn\	.
.	8cc#\J	.	.	.
=27	=27	=27	=27	=27
!	!LO:TX:t=P:problem:mixed beam	!	!	!
2.ryy	8dd\L	.	4ggM\	.
.	8dd\	.	.	.
.	8d/	.	4ff#\	.
.	8d/J	.	.	.
.	4dd\	.	8d/L	.
.	.	.	8d/J	.
=28	=28	=28	=28	=28
2.ryy	4dd\	.	8e/L	.
.	.	.	8e/	.
.	4cc#X\	.	8e/	.
!	!	!	!	!LO:DY:B:a:t=p&colon;
.	.	.	8e/	p
.	4ccn\	.	8f#/	.
.	.	.	8f#/J	.
=29	=29	=29	=29	=29
*	*	*	*^	*
2.ryy	4cc\	.	8g/L	4rcyy	.
.	.	.	8g/J	.	.
.	(16b\LL	.	16dd/LL	4g\	.
.	16cc\)	.	16ee/	.	.
.	(16cc\	.	16ee/	.	.
.	16dd\JJ)	.	16ffn/JJ	.	.
.	(16dd\LL	.	16ff/LL	4g\	.
.	16cc\)	.	16ee/	.	.
.	(16cc\	.	16ee/	.	.
.	16b\JJ)	.	16dd/JJ	.	.
=30	=30	=30	=30	=30	=30
2.ryy	8c/	.	16ee\LL	4ryy	.
.	.	.	16b\	.	.
.	8r	.	16b\	.	.
.	.	.	16cc\JJ	.	.
.	16cc#X\LL	.	16ee/LL	4a\	.
.	16dd\	.	16ff#X/	.	.
.	16dd\	.	16ff#/	.	.
.	16ee\JJ	.	16gg/JJ	.	.
!	!LO:PB:g=original	!	!	!	!
.	16ee\LL	.	16gg/LL	4a\	.
.	(16dd\	.	16ff#/	.	.
.	16dd\	.	16ff#/	.	.
.	16cc#\JJ)	.	16ee/JJ	.	.
*	*	*	*v	*v	*
=31	=31	=31	=31	=31
2.ryy	8d/	.	(16ff#\LL	.
.	.	.	16cc#X\)	.
.	8r	.	(16cc#\	.
.	.	.	16dd\JJ)	.
.	(16ff#\LL	.	16aa\LL	.
.	16gg\)	.	16bb\	.
.	(16gg\	.	16bb\	.
.	16aa\JJ)	.	16ccc\JJ	.
.	(16aa\LL	.	(16ccc\LL	.
.	16gg\)	.	16bb\)	.
.	(16gg\	.	(16bb\	.
.	16ff#\JJ)	.	16aa\JJ)	.
=32	=32	=32	=32	=32
*	*	*	*^	*
!	!LO:TX:t=P:problem:niejednoznaczny zapis ozdobnika [przyjęto mordent górny]:global	!	!	!	!
2.ryy	4ggM\	.	4bb/	4dd\	.
.	4ff#\	.	4aa/	4dd\	.
.	16dd\LL	.	4r	4rcyy	.
.	16cc\	.	.	.	.
.	16b\	.	.	.	.
.	16a\JJ	.	.	.	.
*	*	*	*v	*v	*
=33	=33	=33	=33	=33
*	*tremolo	*	*	*
2.ryy	8g/L	.	4g/	.
.	8g/	.	.	.
.	8g/	.	4dd\	.
.	8g/	.	.	.
.	8g/	.	4gg\	.
.	8g/J	.	.	.
*	*Xtremolo	*	*	*
!	!	!	!LO:LB:g=original	!
=34	=34	=34	=34	=34
2.ryy	4d/	.	4gg\	.
.	4a\	.	4ff#X\	.
.	4dd\	.	4ffn\	.
=35	=35	=35	=35	=35
2.ryy	4dd\	.	2ee\	.
.	4cc#X\	.	.	.
.	4ccn\	.	4aa\	.
=36	=36	=36	=36	=36
*	*2\right	*	*	*
2.ryy	2b\	.	4aa\	.
.	.	.	16gg\LL	.
.	.	.	(16gg\	.
.	.	.	16aa\	.
.	.	.	16bb\JJ)	.
.	4cc#X\	.	(16bb\LL	.
.	.	.	16aa\)	.
.	.	.	(16aa\	.
.	.	.	16gg\JJ)	.
=37	=37	=37	=37	=37
*	*	*	*^	*
!	!	!	!LO:N:vis=4	!	!
2.ryy	8dd'\L	.	8ff#\	8ryy	.
.	8ff#'\	.	8aa/L	8dd\L	.
.	8ff#'\	.	8aa/	8dd\	.
.	8ff#'\J	.	8aa/J	8dd\J	.
!	!LO:TUP:a:problem:klamra łukowa	!	!LO:TUP:a:problem:klamra łukowa	!	!
.	24ff#\LL	.	24aa\LL	4rcyy	.
.	24aa\	.	24ccc\	.	.
.	24gg\	.	24bb\	.	.
.	24ff#\	.	24aa\	.	.
.	24gg\	.	24bb\	.	.
.	24aa\JJ	.	24ccc\JJ	.	.
=38	=38	=38	=38	=38	=38
2.ryy	8gg\L	.	8ryy	8gg\L	.
.	8gg\	.	8bb/L	8dd\	.
.	8gg\	.	8bb/	8dd\	.
.	8gg\J	.	8bb/J	8dd\J	.
!	!LO:TUP:a:problem:klamra łukowa	!	!	!	!
.	24gg\LL	.	24bb\LL	4rcyy	.
.	24bb\	.	24ddd\	.	.
.	24aa\	.	24ccc\	.	.
.	24gg\	.	24bb\	.	.
.	24aa\	.	24ccc\	.	.
.	24bb\JJ	.	24ddd\JJ	.	.
=39	=39	=39	=39	=39	=39
!	!	!	!LO:N:vis=4	!LO:N:vis=8.	!
2.ryy	8.aa\L	.	8ccc/	8dd\L	.
!	!	!	!LO:N:vis=4	!	!
.	.	.	8ccc/	8dd\J	.
.	16aa\Jk	.	.	.	.
.	16aa\LL	.	16ccc\LL	4rcyy	.
.	16ff#\	.	16aa\	.	.
.	16gg\	.	16bb\	.	.
.	16aa\JJ	.	16ccc\JJ	.	.
.	16aa\LL	.	(16ccc\LL	4rcyy	.
.	(16gg\	.	16bb\)	.	.
.	16gg\)	.	(16ccc\	.	.
.	16ff#\JJ	.	16bb\JJ)	.	.
*	*	*	*v	*v	*
!	!LO:LB:g=original	!	!	!
=40	=40	=40	=40	=40
2.ryy	8gg\L	.	8bb\L	.
.	8b\	.	8gg\J	.
.	8b\	.	4gg\	.
.	8b\	.	.	.
.	8b\	.	16gg|\LL	.
.	.	.	(16ffn\	.
.	8b\J	.	16ee\	.
.	.	.	16dd#X\JJ)	.
=41	=41	=41	=41	=41
2.ryy	8c/L	.	16ee\LL	.
.	.	.	16cc\	.
.	8c/	.	16b\	.
.	.	.	16a\JJ	.
.	8d/	.	8.g/L	.
.	8d/	.	.	.
.	.	.	16a/Jk	.
.	8d/	.	4aM/	.
.	8d/J	.	.	.
!	!	!	!LO:LB:g=original	!
=42	=42	=42	=42	=42
2.ryy	4g/	.	8g/L	.
.	.	.	8g/	.
.	16r	.	8g/	.
.	16gg\LL	.	.	.
.	16ff#\	.	8g/	.
.	16ee\JJ	.	.	.
.	16ee\LL	.	8g/	.
.	16dd\	.	.	.
.	16dd\	.	8g/J	.
.	16cc#X\JJ	.	.	.
=43	=43	=43	=43	=43
2.ryy	8dd\L	.	8f#/L	.
.	8aa\J	.	8f#/	.
.	16aa\LL	.	8f#/	.
.	16gg\	.	.	.
.	16gg\	.	8f#/	.
.	16ee\JJ	.	.	.
.	8dd\L	.	8f#/	.
.	8cc\J	.	8f#/J	.
=44	=44	=44	=44	=44
2.ryy	8b/L	.	4g/	.
.	8g/	.	.	.
.	8g/	.	16r	.
.	.	.	(16gg\LL	.
.	8g/	.	16ff#\	.
.	.	.	16ee\JJ)	.
.	8g/	.	(16ee\LL	.
.	.	.	16dd\	.
.	8g/J	.	16dd\	.
.	.	.	16cc#X\JJ)	.
=45	=45	=45	=45	=45
2.ryy	8f#/L	.	8dd\L	.
.	8f#/	.	8ccc\J	.
.	8d/	.	16ccc\LL	.
.	.	.	16bb\	.
.	8d/	.	16aa\	.
.	.	.	16gg\JJ	.
.	8d/	.	16ff#\LL	.
.	.	.	16ee\	.
.	8d/J	.	16dd\	.
.	.	.	16cc\JJ	.
=46	=46	=46	=46	=46
2.ryy	8g\L	.	16b\LL	.
.	.	.	16gg\	.
.	8cc\J	.	16ff#\	.
.	.	.	16aa\JJ	.
!	!LO:TX:t=P:problem:mixed beam	!	!	!
.	.	.	8qqgg/	.
.	8dd\L	.	2ff#\	.
.	8dd\	.	.	.
.	8d/	.	.	.
.	8d/J	.	.	.
=47	=47	=47	=47	=47
!	!	!	!LO:TX:t=P:problem:mixed beam	!
2.ryy	8.e/L	.	16gg\LL	.
.	.	.	16g/	.
.	.	.	16cc/	.
.	16c/Jk	.	16a/JJ	.
.	.	.	32qqg/LL	.
.	.	.	32qqa/JJ	.
.	4d/	.	2a/	.
.	4d/	.	.	.
=48	=48	=48	=48	=48
2.ryy	2G/	.	2g/	.
.	4r	.	4r	.
==	==;	==	==;	==
*-	*-	*-	*-	*-
!!!system-decoration: [(s1,s2,s3)]
!!!RDF**kern: | = vertical stroke
!!!ENC: Katarzyna Serwa
!!!END: 2021-10-28
!!!ENC: Mateusz Solarz
!!!END: 2021-05-27
